ES1T1/13/aimg/b1.svg

<svg clip-rule="evenodd" fill-rule="evenodd" stroke-linejoin="round" stroke-miterlimit="2" viewBox="0 0 214 228" xmlns="http://www.w3.org/2000/svg" xmlns:xlink="http://www.w3.org/1999/xlink"><linearGradient id="a" gradientTransform="matrix(1 0 0 -1 0 .000376)" gradientUnits="userSpaceOnUse" x1="0" x2="1" y1="0" y2="0"><stop offset="0" stop-color="#3075bb"/><stop offset="1" stop-color="#2562ae"/></linearGradient><linearGradient id="b" gradientTransform="matrix(1 0 0 -1 0 .000376)" gradientUnits="userSpaceOnUse" x1="0" x2="1" y1="0" y2="0"><stop offset="0" stop-color="#0098d9"/><stop offset="1" stop-color="#1783c6"/></linearGradient><linearGradient id="c" gradientTransform="matrix(1 0 0 -1 0 .000357)" gradientUnits="userSpaceOnUse" x1="0" x2="1" y1="0" y2="0"><stop offset="0" stop-color="#5fccf6"/><stop offset="1" stop-color="#3075bb"/></linearGradient><linearGradient id="d" gradientTransform="matrix(1 0 0 -1 0 .001458)" gradientUnits="userSpaceOnUse" x1="0" x2="1" y1="0" y2="0"><stop offset="0" stop-color="#1b81c4"/><stop offset="1" stop-color="#2562ae"/></linearGradient><linearGradient id="e" gradientTransform="matrix(1 0 0 -1 0 .001458)" gradientUnits="userSpaceOnUse" x1="0" x2="1" y1="0" y2="0"><stop offset="0" stop-color="#d6e1e2"/><stop offset="1" stop-color="#a8bfbd"/></linearGradient><linearGradient id="f" gradientTransform="matrix(1 0 0 -1 0 .000412)" gradientUnits="userSpaceOnUse" x1="0" x2="1" y1="0" y2="0"><stop offset="0" stop-color="#fff"/><stop offset="1" stop-color="#dde6e6"/></linearGradient><g fill-rule="nonzero"><path d="m0 .027c.004-.064.013-.214.139-.266l.568-.23c.072-.029.142-.024.198.014.059.04.095.113.095.196 0 .148-.091.192-.144.205l-.029.007v.103l.02.005c.054.014.144.059.144.206 0 .08-.035.151-.092.19-.054.037-.122.041-.192.013l-.569-.228c-.084-.034-.138-.113-.138-.202 0-.004 0-.009 0-.013z" fill="url(#a)" transform="matrix(0 218.772 218.772 0 107.142 8.976)"/><path d="m0 .027c.004-.064.013-.214.139-.266l.568-.23c.072-.029.142-.024.198.014.059.04.095.113.095.196 0 .148-.091.192-.144.205l-.029.007v.103l.02.005c.054.014.144.059.144.206 0 .08-.035.151-.092.19-.054.037-.122.041-.192.013l-.569-.228c-.084-.034-.138-.113-.138-.202 0-.004 0-.009 0-.013z" fill="url(#b)" transform="matrix(0 218.76 218.76 0 107.142 -.003)"/><path d="m0 .027c.004-.063.013-.213.137-.264l.573-.232c.071-.029.141-.024.196.013.059.04.094.113.094.194 0 .147-.09.191-.143.204l-.032.008v.11l.024.006c.053.013.142.058.142.203 0 .08-.034.15-.091.189-.054.036-.121.04-.19.012l-.573-.23c-.083-.033-.137-.112-.137-.2 0-.004 0-.008 0-.013z" fill="url(#c)" transform="matrix(0 216.968 216.968 0 107.147 -.003)"/><path d="m0 .04c.006-.1.023-.197.1-.229l.694-.28c.134-.054.206.05.206.153 0 .062-.014.125-.092.144l-.12.03v.297l.109.027c.078.02.092.083.092.145 0 .098-.066.198-.195.146l-.695-.279c-.059-.024-.099-.079-.099-.145 0-.003 0-.006 0-.009zm.555-.126-.369.09.413.103z" fill="url(#d)" transform="matrix(0 179.254 179.254 0 106.963 23.345)"/><g fill="url(#e)"><path d="m0 .04c.006-.1.023-.197.1-.229l.694-.28c.134-.054.206.05.206.153 0 .062-.014.125-.092.144l-.12.03v.297l.109.027c.078.02.092.083.092.145 0 .098-.066.198-.195.146l-.695-.279c-.059-.024-.099-.079-.099-.145 0-.003 0-.006 0-.009zm.555-.126-.369.09.413.103z" transform="matrix(0 179.255 179.255 0 106.963 20.644)"/><path d="m0 .04c.006-.1.023-.197.1-.229l.694-.28c.134-.054.206.05.206.153 0 .062-.014.125-.092.144l-.12.03v.297l.109.027c.078.02.092.083.092.145 0 .098-.066.198-.195.146l-.695-.279c-.059-.024-.099-.079-.099-.145 0-.003 0-.006 0-.009zm.555-.126-.369.09.413.103z" transform="matrix(0 179.254 179.254 0 106.963 19.749)"/><path d="m0 .04c.006-.1.023-.197.1-.229l.694-.28c.134-.054.206.05.206.153 0 .062-.014.125-.092.144l-.12.03v.297l.108.027c.079.02.093.083.093.145 0 .098-.066.198-.195.146l-.695-.279c-.059-.024-.099-.079-.099-.145 0-.003 0-.006 0-.009zm.555-.126-.369.09.413.103z" transform="matrix(0 179.254 179.254 0 106.963 18.852)"/><path d="m0 .04c.006-.1.023-.197.1-.229l.694-.28c.134-.054.206.05.206.153 0 .062-.014.125-.092.144l-.12.03v.297l.109.027c.078.02.092.083.092.145 0 .098-.066.198-.195.146l-.695-.279c-.059-.024-.099-.079-.099-.145 0-.003 0-.006 0-.009zm.555-.126-.369.09.413.103z" transform="matrix(0 179.259 179.259 0 106.963 17.945)"/><path d="m0 .04c.006-.1.023-.197.101-.229l.693-.28c.134-.054.206.05.206.153 0 .062-.014.125-.092.144l-.119.03v.297l.108.027c.078.02.092.083.092.145 0 .098-.066.198-.195.146l-.695-.279c-.059-.024-.099-.079-.099-.145 0-.003 0-.006 0-.009zm.555-.126-.369.09.413.103z" transform="matrix(0 179.252 179.252 0 106.963 17.05)"/><path d="m0 .04c.006-.1.023-.197.1-.229l.694-.28c.134-.054.206.05.206.153 0 .062-.014.125-.092.144l-.12.03v.297l.108.027c.079.02.093.083.093.145 0 .098-.066.198-.195.146l-.695-.279c-.059-.024-.099-.079-.099-.145 0-.003 0-.006 0-.009zm.555-.126-.369.09.413.103z" transform="matrix(0 179.259 179.259 0 106.963 16.153)"/><path d="m0 .04c.006-.1.023-.197.1-.229l.694-.28c.134-.054.206.05.206.153 0 .062-.014.125-.092.144l-.119.03v.297l.108.027c.078.02.092.083.092.145 0 .098-.066.198-.195.146l-.695-.279c-.059-.024-.099-.079-.099-.145 0-.003 0-.006 0-.009zm.555-.126-.369.09.413.103z" transform="matrix(0 179.248 179.248 0 106.963 15.262)"/><path d="m0 .04c.006-.1.023-.197.1-.229l.694-.28c.134-.054.206.05.206.153 0 .062-.014.125-.092.144l-.12.03v.297l.108.027c.079.02.093.083.093.145 0 .098-.066.198-.195.146l-.695-.279c-.059-.024-.099-.079-.099-.145 0-.003 0-.006 0-.009zm.555-.126-.369.09.413.103z" transform="matrix(0 179.26 179.26 0 106.963 14.36)"/><path d="m0 .04c.006-.1.023-.197.1-.229l.694-.28c.134-.054.206.05.206.153 0 .062-.014.125-.092.144l-.12.03v.297l.108.027c.079.02.093.083.093.145 0 .098-.066.198-.195.146l-.695-.279c-.059-.024-.099-.079-.099-.145 0-.003 0-.006 0-.009zm.555-.126-.369.09.413.103z" transform="matrix(0 179.259 179.259 0 106.963 13.465)"/><path d="m0 .04c.006-.1.023-.197.1-.229l.694-.28c.134-.054.206.05.206.153 0 .062-.014.125-.092.144l-.12.03v.297l.108.027c.079.02.093.083.093.145 0 .098-.066.198-.195.146l-.695-.279c-.059-.024-.099-.079-.099-.145 0-.003 0-.006 0-.009zm.555-.126-.369.09.413.103z" transform="matrix(0 179.26 179.26 0 106.963 12.568)"/></g><path d="m0 8.68-4.453-17.783-3.863 15.88zm9.437 16.771c-2.661 0-5.349-.615-6.217-3.975l-1.175-4.648h-12.798l-1.259 5.125c-.812 3.359-3.529 3.977-6.189 3.977-4.452 0-8.932-3.109-6.61-8.877l12.07-29.823c1.372-3.331 5.545-4.061 9.856-4.311 2.968-.169 5.545 1.596 6.609 4.254l11.985 29.88c2.241 5.544-2.044 8.398-6.272 8.398" fill="#fff" transform="matrix(4.16667 0 0 4.16667 126.224 83.786)"/><path d="m0 .042c.006-.097.021-.191.092-.22l.722-.293c.048-.019.092-.018.125.004.037.026.061.078.061.137 0 .077-.024.116-.08.13l-.124.03c-.01.002-.016.011-.016.02v.31c0 .01.006.018.015.02l.113.029c.056.014.08.053.08.13 0 .056-.021.106-.057.13-.031.021-.07.022-.117.003l-.724-.29c-.055-.022-.09-.074-.09-.132 0-.002 0-.005 0-.008zm.624.064-.047-.201c-.001-.006-.004-.01-.009-.013s-.01-.004-.016-.003l-.384.094c-.01.002-.016.01-.016.02 0 .009.006.018.016.02l.43.108c.007.002.015 0 .02-.005.004-.004.006-.01.006-.015 0-.002 0-.003 0-.005z" fill="url(#f)" transform="matrix(0 172.064 172.064 0 107.171 17.954)"/></g></svg>

<?xml version="1.0" encoding="UTF-8" standalone="no"?>
<!DOCTYPE svg PUBLIC "-//W3C//DTD SVG 1.1//EN" "http://www.w3.org/Graphics/SVG/1.1/DTD/svg11.dtd">
<svg width="100%" height="100%" viewBox="0 0 214 228" version="1.1" xmlns="http://www.w3.org/2000/svg" xmlns:xlink="http://www.w3.org/1999/xlink" xml:space="preserve" xmlns:serif="http://www.serif.com/" style="fill-rule:evenodd;clip-rule:evenodd;stroke-linejoin:round;stroke-miterlimit:2;">
    <g transform="matrix(1,0,0,1,-221,-850)">
        <g>
            <g transform="matrix(0,218.772,218.772,0,328.142,858.976)">
                <path d="M0,0.027C0.004,-0.037 0.013,-0.187 0.139,-0.239L0.707,-0.469C0.779,-0.498 0.849,-0.493 0.905,-0.455C0.964,-0.415 1,-0.342 1,-0.259C1,-0.111 0.909,-0.067 0.856,-0.054L0.827,-0.047L0.827,0.056L0.847,0.061C0.901,0.075 0.991,0.12 0.991,0.267C0.991,0.347 0.956,0.418 0.899,0.457C0.845,0.494 0.777,0.498 0.707,0.47L0.138,0.242C0.054,0.208 0,0.129 0,0.04C0,0.036 0,0.031 0,0.027Z" style="fill:url(#_Linear1);fill-rule:nonzero;"/>
            </g>
            <g transform="matrix(0,218.76,218.76,0,328.142,849.997)">
                <path d="M0,0.027C0.004,-0.037 0.013,-0.187 0.139,-0.239L0.707,-0.469C0.779,-0.498 0.849,-0.493 0.905,-0.455C0.964,-0.415 1,-0.342 1,-0.259C1,-0.111 0.909,-0.067 0.856,-0.054L0.827,-0.047L0.827,0.056L0.847,0.061C0.901,0.075 0.991,0.12 0.991,0.267C0.991,0.347 0.956,0.418 0.899,0.457C0.845,0.494 0.777,0.498 0.707,0.47L0.138,0.242C0.054,0.208 0,0.129 0,0.04C0,0.036 0,0.031 0,0.027Z" style="fill:url(#_Linear2);fill-rule:nonzero;"/>
            </g>
            <g transform="matrix(0,216.968,216.968,0,328.147,849.997)">
                <path d="M0,0.027C0.004,-0.036 0.013,-0.186 0.137,-0.237L0.71,-0.469C0.781,-0.498 0.851,-0.493 0.906,-0.456C0.965,-0.416 1,-0.343 1,-0.262C1,-0.115 0.91,-0.071 0.857,-0.058L0.825,-0.05L0.825,0.06L0.849,0.066C0.902,0.079 0.991,0.124 0.991,0.269C0.991,0.349 0.957,0.419 0.9,0.458C0.846,0.494 0.779,0.498 0.71,0.47L0.137,0.24C0.054,0.207 0,0.128 0,0.04C0,0.036 0,0.032 0,0.027Z" style="fill:url(#_Linear3);fill-rule:nonzero;"/>
            </g>
            <g transform="matrix(0,179.254,179.254,0,327.963,873.345)">
                <path d="M0,0.04C0.006,-0.06 0.023,-0.157 0.1,-0.189L0.794,-0.469C0.928,-0.523 1,-0.419 1,-0.316C1,-0.254 0.986,-0.191 0.908,-0.172L0.788,-0.142L0.788,0.155L0.897,0.182C0.975,0.202 0.989,0.265 0.989,0.327C0.989,0.425 0.923,0.525 0.794,0.473L0.099,0.194C0.04,0.17 0,0.115 0,0.049C0,0.046 0,0.043 0,0.04ZM0.555,-0.086L0.186,0.004L0.599,0.107L0.555,-0.086Z" style="fill:url(#_Linear4);fill-rule:nonzero;"/>
            </g>
            <g transform="matrix(0,179.255,179.255,0,327.963,870.644)">
                <path d="M0,0.04C0.006,-0.06 0.023,-0.157 0.1,-0.189L0.794,-0.469C0.928,-0.523 1,-0.419 1,-0.316C1,-0.254 0.986,-0.191 0.908,-0.172L0.788,-0.142L0.788,0.155L0.897,0.182C0.975,0.202 0.989,0.265 0.989,0.327C0.989,0.425 0.923,0.525 0.794,0.473L0.099,0.194C0.04,0.17 0,0.115 0,0.049C0,0.046 0,0.043 0,0.04ZM0.555,-0.086L0.186,0.004L0.599,0.107L0.555,-0.086Z" style="fill:url(#_Linear5);fill-rule:nonzero;"/>
            </g>
            <g transform="matrix(0,179.254,179.254,0,327.963,869.749)">
                <path d="M0,0.04C0.006,-0.06 0.023,-0.157 0.1,-0.189L0.794,-0.469C0.928,-0.523 1,-0.419 1,-0.316C1,-0.254 0.986,-0.191 0.908,-0.172L0.788,-0.142L0.788,0.155L0.897,0.182C0.975,0.202 0.989,0.265 0.989,0.327C0.989,0.425 0.923,0.525 0.794,0.473L0.099,0.194C0.04,0.17 0,0.115 0,0.049C0,0.046 0,0.043 0,0.04ZM0.555,-0.086L0.186,0.004L0.599,0.107L0.555,-0.086Z" style="fill:url(#_Linear6);fill-rule:nonzero;"/>
            </g>
            <g transform="matrix(0,179.254,179.254,0,327.963,868.852)">
                <path d="M0,0.04C0.006,-0.06 0.023,-0.157 0.1,-0.189L0.794,-0.469C0.928,-0.523 1,-0.419 1,-0.316C1,-0.254 0.986,-0.191 0.908,-0.172L0.788,-0.142L0.788,0.155L0.896,0.182C0.975,0.202 0.989,0.265 0.989,0.327C0.989,0.425 0.923,0.525 0.794,0.473L0.099,0.194C0.04,0.17 0,0.115 0,0.049C0,0.046 0,0.043 0,0.04ZM0.555,-0.086L0.186,0.004L0.599,0.107L0.555,-0.086Z" style="fill:url(#_Linear7);fill-rule:nonzero;"/>
            </g>
            <g transform="matrix(0,179.259,179.259,0,327.963,867.945)">
                <path d="M0,0.04C0.006,-0.06 0.023,-0.157 0.1,-0.189L0.794,-0.469C0.928,-0.523 1,-0.419 1,-0.316C1,-0.254 0.986,-0.191 0.908,-0.172L0.788,-0.142L0.788,0.155L0.897,0.182C0.975,0.202 0.989,0.265 0.989,0.327C0.989,0.425 0.923,0.525 0.794,0.473L0.099,0.194C0.04,0.17 0,0.115 0,0.049C0,0.046 0,0.043 0,0.04ZM0.555,-0.086L0.186,0.004L0.599,0.107L0.555,-0.086Z" style="fill:url(#_Linear8);fill-rule:nonzero;"/>
            </g>
            <g transform="matrix(0,179.252,179.252,0,327.963,867.05)">
                <path d="M0,0.04C0.006,-0.06 0.023,-0.157 0.101,-0.189L0.794,-0.469C0.928,-0.523 1,-0.419 1,-0.316C1,-0.254 0.986,-0.191 0.908,-0.172L0.789,-0.142L0.789,0.155L0.897,0.182C0.975,0.202 0.989,0.265 0.989,0.327C0.989,0.425 0.923,0.525 0.794,0.473L0.099,0.194C0.04,0.17 0,0.115 0,0.049C0,0.046 0,0.043 0,0.04ZM0.555,-0.086L0.186,0.004L0.599,0.107L0.555,-0.086Z" style="fill:url(#_Linear9);fill-rule:nonzero;"/>
            </g>
            <g transform="matrix(0,179.259,179.259,0,327.963,866.153)">
                <path d="M0,0.04C0.006,-0.06 0.023,-0.157 0.1,-0.189L0.794,-0.469C0.928,-0.523 1,-0.419 1,-0.316C1,-0.254 0.986,-0.191 0.908,-0.172L0.788,-0.142L0.788,0.155L0.896,0.182C0.975,0.202 0.989,0.265 0.989,0.327C0.989,0.425 0.923,0.525 0.794,0.473L0.099,0.194C0.04,0.17 0,0.115 0,0.049C0,0.046 0,0.043 0,0.04ZM0.555,-0.086L0.186,0.004L0.599,0.107L0.555,-0.086Z" style="fill:url(#_Linear10);fill-rule:nonzero;"/>
            </g>
            <g transform="matrix(0,179.248,179.248,0,327.963,865.262)">
                <path d="M0,0.04C0.006,-0.06 0.023,-0.157 0.1,-0.189L0.794,-0.469C0.928,-0.523 1,-0.419 1,-0.316C1,-0.254 0.986,-0.191 0.908,-0.172L0.789,-0.142L0.789,0.155L0.897,0.182C0.975,0.202 0.989,0.265 0.989,0.327C0.989,0.425 0.923,0.525 0.794,0.473L0.099,0.194C0.04,0.17 0,0.115 0,0.049C0,0.046 0,0.043 0,0.04ZM0.555,-0.086L0.186,0.004L0.599,0.107L0.555,-0.086Z" style="fill:url(#_Linear11);fill-rule:nonzero;"/>
            </g>
            <g transform="matrix(0,179.26,179.26,0,327.963,864.36)">
                <path d="M0,0.04C0.006,-0.06 0.023,-0.157 0.1,-0.189L0.794,-0.469C0.928,-0.523 1,-0.419 1,-0.316C1,-0.254 0.986,-0.191 0.908,-0.172L0.788,-0.142L0.788,0.155L0.896,0.182C0.975,0.202 0.989,0.265 0.989,0.327C0.989,0.425 0.923,0.525 0.794,0.473L0.099,0.194C0.04,0.17 0,0.115 0,0.049C0,0.046 0,0.043 0,0.04ZM0.555,-0.086L0.186,0.004L0.599,0.107L0.555,-0.086Z" style="fill:url(#_Linear12);fill-rule:nonzero;"/>
            </g>
            <g transform="matrix(0,179.259,179.259,0,327.963,863.465)">
                <path d="M0,0.04C0.006,-0.06 0.023,-0.157 0.1,-0.189L0.794,-0.469C0.928,-0.523 1,-0.419 1,-0.316C1,-0.254 0.986,-0.191 0.908,-0.172L0.788,-0.142L0.788,0.155L0.896,0.182C0.975,0.202 0.989,0.265 0.989,0.327C0.989,0.425 0.923,0.525 0.794,0.473L0.099,0.194C0.04,0.17 0,0.115 0,0.049C0,0.046 0,0.043 0,0.04ZM0.555,-0.086L0.186,0.004L0.599,0.107L0.555,-0.086Z" style="fill:url(#_Linear13);fill-rule:nonzero;"/>
            </g>
            <g transform="matrix(0,179.26,179.26,0,327.963,862.568)">
                <path d="M0,0.04C0.006,-0.06 0.023,-0.157 0.1,-0.189L0.794,-0.469C0.928,-0.523 1,-0.419 1,-0.316C1,-0.254 0.986,-0.191 0.908,-0.172L0.788,-0.142L0.788,0.155L0.896,0.182C0.975,0.202 0.989,0.265 0.989,0.327C0.989,0.425 0.923,0.525 0.794,0.473L0.099,0.194C0.04,0.17 0,0.115 0,0.049C0,0.046 0,0.043 0,0.04ZM0.555,-0.086L0.186,0.004L0.599,0.107L0.555,-0.086Z" style="fill:url(#_Linear14);fill-rule:nonzero;"/>
            </g>
            <g transform="matrix(4.16667,0,0,4.16667,347.224,933.786)">
                <path d="M0,8.68L-4.453,-9.103L-8.316,6.777L0,8.68ZM9.437,25.451C6.776,25.451 4.088,24.836 3.22,21.476L2.045,16.828L-10.753,16.828L-12.012,21.953C-12.824,25.312 -15.541,25.93 -18.201,25.93C-22.653,25.93 -27.133,22.821 -24.811,17.053L-12.741,-12.77C-11.369,-16.101 -7.196,-16.831 -2.885,-17.081C0.083,-17.25 2.66,-15.485 3.724,-12.827L15.709,17.053C17.95,22.597 13.665,25.451 9.437,25.451" style="fill:white;fill-rule:nonzero;"/>
            </g>
            <g transform="matrix(0,172.064,172.064,0,328.171,867.954)">
                <path d="M0,0.042C0.006,-0.055 0.021,-0.149 0.092,-0.178L0.814,-0.471C0.862,-0.49 0.906,-0.489 0.939,-0.467C0.976,-0.441 1,-0.389 1,-0.33C1,-0.253 0.976,-0.214 0.92,-0.2L0.796,-0.17C0.786,-0.168 0.78,-0.159 0.78,-0.15L0.78,0.16C0.78,0.17 0.786,0.178 0.795,0.18L0.908,0.209C0.964,0.223 0.988,0.262 0.988,0.339C0.988,0.395 0.967,0.445 0.931,0.469C0.9,0.49 0.861,0.491 0.814,0.472L0.09,0.182C0.035,0.16 0,0.108 0,0.05C0,0.048 0,0.045 0,0.042ZM0.624,0.106L0.577,-0.095C0.576,-0.101 0.573,-0.105 0.568,-0.108C0.563,-0.111 0.558,-0.112 0.552,-0.111L0.168,-0.017C0.158,-0.015 0.152,-0.007 0.152,0.003L0.152,0.003C0.152,0.012 0.158,0.021 0.168,0.023L0.598,0.131C0.605,0.133 0.613,0.131 0.618,0.126C0.622,0.122 0.624,0.116 0.624,0.111C0.624,0.109 0.624,0.108 0.624,0.106Z" style="fill:url(#_Linear15);fill-rule:nonzero;"/>
            </g>
        </g>
    </g>
    <defs>
        <linearGradient id="_Linear1" x1="0" y1="0" x2="1" y2="0" gradientUnits="userSpaceOnUse" gradientTransform="matrix(1,0,0,-1,0,0.00037624)"><stop offset="0" style="stop-color:rgb(48,117,187);stop-opacity:1"/><stop offset="1" style="stop-color:rgb(37,98,174);stop-opacity:1"/></linearGradient>
        <linearGradient id="_Linear2" x1="0" y1="0" x2="1" y2="0" gradientUnits="userSpaceOnUse" gradientTransform="matrix(1,0,0,-1,0,0.000376262)"><stop offset="0" style="stop-color:rgb(0,152,217);stop-opacity:1"/><stop offset="1" style="stop-color:rgb(23,131,198);stop-opacity:1"/></linearGradient>
        <linearGradient id="_Linear3" x1="0" y1="0" x2="1" y2="0" gradientUnits="userSpaceOnUse" gradientTransform="matrix(1,0,0,-1,0,0.000356505)"><stop offset="0" style="stop-color:rgb(95,204,246);stop-opacity:1"/><stop offset="1" style="stop-color:rgb(48,117,187);stop-opacity:1"/></linearGradient>
        <linearGradient id="_Linear4" x1="0" y1="0" x2="1" y2="0" gradientUnits="userSpaceOnUse" gradientTransform="matrix(1,0,0,-1,0,0.00145834)"><stop offset="0" style="stop-color:rgb(27,129,196);stop-opacity:1"/><stop offset="1" style="stop-color:rgb(37,98,174);stop-opacity:1"/></linearGradient>
        <linearGradient id="_Linear5" x1="0" y1="0" x2="1" y2="0" gradientUnits="userSpaceOnUse" gradientTransform="matrix(1,0,0,-1,0,0.00145832)"><stop offset="0" style="stop-color:rgb(214,225,226);stop-opacity:1"/><stop offset="0" style="stop-color:rgb(214,225,226);stop-opacity:1"/><stop offset="1" style="stop-color:rgb(168,191,189);stop-opacity:1"/></linearGradient>
        <linearGradient id="_Linear6" x1="0" y1="0" x2="1" y2="0" gradientUnits="userSpaceOnUse" gradientTransform="matrix(1,0,0,-1,0,0.00145833)"><stop offset="0" style="stop-color:rgb(214,225,226);stop-opacity:1"/><stop offset="0" style="stop-color:rgb(214,225,226);stop-opacity:1"/><stop offset="1" style="stop-color:rgb(168,191,189);stop-opacity:1"/></linearGradient>
        <linearGradient id="_Linear7" x1="0" y1="0" x2="1" y2="0" gradientUnits="userSpaceOnUse" gradientTransform="matrix(1,0,0,-1,0,0.00145833)"><stop offset="0" style="stop-color:rgb(214,225,226);stop-opacity:1"/><stop offset="0" style="stop-color:rgb(214,225,226);stop-opacity:1"/><stop offset="1" style="stop-color:rgb(168,191,189);stop-opacity:1"/></linearGradient>
        <linearGradient id="_Linear8" x1="0" y1="0" x2="1" y2="0" gradientUnits="userSpaceOnUse" gradientTransform="matrix(1,0,0,-1,0,0.00145829)"><stop offset="0" style="stop-color:rgb(214,225,226);stop-opacity:1"/><stop offset="0" style="stop-color:rgb(214,225,226);stop-opacity:1"/><stop offset="1" style="stop-color:rgb(168,191,189);stop-opacity:1"/></linearGradient>
        <linearGradient id="_Linear9" x1="0" y1="0" x2="1" y2="0" gradientUnits="userSpaceOnUse" gradientTransform="matrix(1,0,0,-1,0,0.00145835)"><stop offset="0" style="stop-color:rgb(214,225,226);stop-opacity:1"/><stop offset="0" style="stop-color:rgb(214,225,226);stop-opacity:1"/><stop offset="1" style="stop-color:rgb(168,191,189);stop-opacity:1"/></linearGradient>
        <linearGradient id="_Linear10" x1="0" y1="0" x2="1" y2="0" gradientUnits="userSpaceOnUse" gradientTransform="matrix(1,0,0,-1,0,0.00145829)"><stop offset="0" style="stop-color:rgb(214,225,226);stop-opacity:1"/><stop offset="0" style="stop-color:rgb(214,225,226);stop-opacity:1"/><stop offset="1" style="stop-color:rgb(168,191,189);stop-opacity:1"/></linearGradient>
        <linearGradient id="_Linear11" x1="0" y1="0" x2="1" y2="0" gradientUnits="userSpaceOnUse" gradientTransform="matrix(1,0,0,-1,0,0.00145838)"><stop offset="0" style="stop-color:rgb(214,225,226);stop-opacity:1"/><stop offset="0" style="stop-color:rgb(214,225,226);stop-opacity:1"/><stop offset="1" style="stop-color:rgb(168,191,189);stop-opacity:1"/></linearGradient>
        <linearGradient id="_Linear12" x1="0" y1="0" x2="1" y2="0" gradientUnits="userSpaceOnUse" gradientTransform="matrix(1,0,0,-1,0,0.00145828)"><stop offset="0" style="stop-color:rgb(214,225,226);stop-opacity:1"/><stop offset="0" style="stop-color:rgb(214,225,226);stop-opacity:1"/><stop offset="1" style="stop-color:rgb(168,191,189);stop-opacity:1"/></linearGradient>
        <linearGradient id="_Linear13" x1="0" y1="0" x2="1" y2="0" gradientUnits="userSpaceOnUse" gradientTransform="matrix(1,0,0,-1,0,0.00145829)"><stop offset="0" style="stop-color:rgb(214,225,226);stop-opacity:1"/><stop offset="0" style="stop-color:rgb(214,225,226);stop-opacity:1"/><stop offset="1" style="stop-color:rgb(168,191,189);stop-opacity:1"/></linearGradient>
        <linearGradient id="_Linear14" x1="0" y1="0" x2="1" y2="0" gradientUnits="userSpaceOnUse" gradientTransform="matrix(1,0,0,-1,0,0.00145828)"><stop offset="0" style="stop-color:rgb(214,225,226);stop-opacity:1"/><stop offset="0" style="stop-color:rgb(214,225,226);stop-opacity:1"/><stop offset="1" style="stop-color:rgb(168,191,189);stop-opacity:1"/></linearGradient>
        <linearGradient id="_Linear15" x1="0" y1="0" x2="1" y2="0" gradientUnits="userSpaceOnUse" gradientTransform="matrix(1,0,0,-1,0,0.000412231)"><stop offset="0" style="stop-color:white;stop-opacity:1"/><stop offset="0" style="stop-color:white;stop-opacity:1"/><stop offset="1" style="stop-color:rgb(221,230,230);stop-opacity:1"/><stop offset="1" style="stop-color:rgb(221,230,230);stop-opacity:1"/></linearGradient>
    </defs>
</svg>
